X: 9246
T: Dan McCarthy's Fancy
R: strathspey
M: 4/4
K: Adorian
eA A2 egfg|eA A2 efdf|eA A2 egfa|gedB Agfg|
eA A2 egfg|eA A2 efdf|eA A2 egfa|gedB G2 (3Bcd||
ea a2 bgag|eaag ed (3Bcd|ea a2 bgaf|gedB G2 (3Bcd|
ea a2 bgag|eaag egdg|efga bgaf|gedB Agfg||

